X:4975
T:the Preston Hunt
A:North-West
M:C|
O:England
R:Reel
Z:Richard Robinson 
%%TUNEURL: http://www.leeds.ac.uk/music/Info/RRTuneBk/gettune/00000509.html
%%ID:00000509
K:Bb
Bc|\
defg f2dB| g2ec f2dB| Bcde fdBd| c=Bcd c3_B/c/|\
defg f2dB| g2ec f2dB| fbag gfed| fedc B2::\
FG|\
ABcd cAFA| dBFB cAFA| FGAB cAFA| edc=B c3_B/c/|\
defg fB "tr"(B3/A//B//)| gB "tr"(B3/A//B//) fB "tr"(B3/A//B//)|\
fbag gfed| fedc B2:|
